X: 4808
T: Boys Of The Puddle
R: jig
M: 6/8
K: Gminor
|:dBB fBB|ggg fdc|dBB fcB|ccc cdf|
dBB fBB|ggg fdf|b2f fdB|ccc cdf:|
c2c cde|ddd dcB|c2c cdf|ggg gfd|
c2c cde|ddd def|ggg gfg|ccc cdc|
c2c cde|ddd dcB|c2c cdf|ggg gfd|
b2g fdB|ccc cde|ddd def|ccc cde|

